X: 1
T: Humours Of Ballydehob, The
M: 6/8
L: 1/8
R: jig
K: Dmaj
ag|: fdd edB | ABd edB | ABd ede | faa bag|
fdd edB | ABd edB | ABd efg | fdd d3:|
|:faa egg | f/g/af edB | ABd ede | fee e2g|
faa egg | f/g/af edB | ABd ede | fdd d3:|
